!! 00000] TT[WS
!!!OTL: Dawanwan kaihua
!!!ARE: Asia, China,ÿShanxi Ningwu
!! Ethnic Group: Han
!! WI, 131 (1)
!!!SCT: J0157
!!!YEM: Copyright 1995, estate of Helmut Schaffrath.
**kern
*ICvox
*Ivox
*M2/4
*k[f#]
*G:
{8ee
16ee
16dd
8b
8dd
=1
8ee
16ee
16dd
8b
8dd
=2
8ee
16ee
16gg
16b
16dd
16b
16dd
=3
2ee}
=4
{8dd
16dd
16ee
8aa
8ff#
=5
4.ee
8dd}
=6
{8b
8ee
8g
8a
=7
8b
8ee
8g
8a
=8
8.g
16a
8dd
8f#
=9
2e}
==
!!!AGN: Xiaodiao. Qingge
!!!ONB: ESAC (Essen Associative Code) Database: CHINA
!!!AMT: simple duple
!!!AIN: vox
!!!EED: Helmut Schaffrath
!!!EEV: 1.0
*-
